X: 202
T: Drunken Parson, the
M: 6/8
L: 1/8
Q:1/4=210
K:G % 1 Sharp
%  SSF February 2007
D|
"G"GBB "D7"Acc|"G"Bdd "C"c2e|"G"dBB "D7"cAA|"G"BGG G2D|\
"G"GBB "D7"Acc|"G"Bdd "C"c2e|"G"dBB "D7"cAd|"G"BGG G2:||
D|
"G"GBd gfg|"C"ecc c2B|"Am"Ace aga|"A"fed d2B|
"G"GBd gfg|"C"ecc c2e|"G"dBB "D"cAd|"G"BGG G2:||
